source/img/svg/icon-strategy.svg

<svg width="48" height="48" viewBox="0 0 48 48" fill="none" xmlns="http://www.w3.org/2000/svg">
<path d="M25.82 24.264C25.82 26.671 23.8688 28.6223 21.4618 28.6223C19.0548 28.6223 17.1035 26.671 17.1035 24.264C17.1035 21.857 19.0548 19.9057 21.4618 19.9057C23.8688 19.9057 25.82 21.857 25.82 24.264Z" fill="#C43B55"/>
<path d="M35.3281 24.264C35.3281 31.9226 29.1196 38.1312 21.4609 38.1312C13.8023 38.1312 7.59375 31.9226 7.59375 24.264C7.59375 16.6053 13.8023 10.3968 21.4609 10.3968C29.1196 10.3968 35.3281 16.6053 35.3281 24.264ZM10.7832 24.264C10.7832 30.1611 15.5638 34.9417 21.4609 34.9417C27.3581 34.9417 32.1387 30.1611 32.1387 24.264C32.1387 18.3668 27.3581 13.5862 21.4609 13.5862C15.5638 13.5862 10.7832 18.3668 10.7832 24.264Z" fill="#C43B55"/>
<path fill-rule="evenodd" clip-rule="evenodd" d="M21.4615 10.9911C14.1311 10.9911 8.18862 16.9335 8.18862 24.264C8.18862 31.5944 14.1311 37.5368 21.4615 37.5368C28.7919 37.5368 34.7344 31.5944 34.7344 24.264C34.7344 19.1207 31.8091 14.6596 27.5287 12.4557C27.2369 12.3054 27.1222 11.9471 27.2724 11.6552C27.4227 11.3634 27.781 11.2487 28.0728 11.3989C32.7334 13.7986 35.923 18.6583 35.923 24.264C35.923 32.2508 29.4484 38.7255 21.4615 38.7255C13.4746 38.7255 7 32.2508 7 24.264C7 16.2771 13.4746 9.80246 21.4615 9.80246C21.7897 9.80246 22.0558 10.0685 22.0558 10.3968C22.0558 10.725 21.7897 10.9911 21.4615 10.9911Z" fill="black"/>
<path fill-rule="evenodd" clip-rule="evenodd" d="M21.4618 34.3672C15.8819 34.3672 11.3585 29.8439 11.3585 24.264C11.3585 18.6841 15.8819 14.1608 21.4618 14.1608C27.0416 14.1608 31.565 18.6841 31.565 24.264C31.565 28.1788 29.3385 31.5747 26.08 33.2525C25.7882 33.4027 25.6735 33.7611 25.8237 34.0529C25.974 34.3447 26.3323 34.4595 26.6241 34.3092C30.2629 32.4357 32.7536 28.6412 32.7536 24.264C32.7536 18.0277 27.6981 12.9721 21.4618 12.9721C15.2255 12.9721 10.1699 18.0277 10.1699 24.264C10.1699 30.5003 15.2255 35.5558 21.4618 35.5558C21.79 35.5558 22.0561 35.2898 22.0561 34.9615C22.0561 34.6333 21.79 34.3672 21.4618 34.3672Z" fill="black"/>
<path fill-rule="evenodd" clip-rule="evenodd" d="M14.821 22.4849C15.8037 18.8177 19.5731 16.6415 23.2403 17.6241C26.9075 18.6067 29.0838 22.3761 28.1012 26.0433C27.1185 29.7105 23.3491 31.8868 19.6819 30.9042C17.1093 30.2148 15.2693 28.1539 14.7403 25.7163C14.6707 25.3955 14.3543 25.1919 14.0335 25.2616C13.7128 25.3312 13.5092 25.6476 13.5788 25.9684C14.1984 28.8239 16.355 31.2433 19.3743 32.0523C23.6756 33.2048 28.0967 30.6523 29.2493 26.351C30.4018 22.0497 27.8492 17.6285 23.5479 16.476C19.2466 15.3234 14.8255 17.876 13.6729 22.1773C13.588 22.4943 13.7761 22.8202 14.0932 22.9052C14.4102 22.9901 14.7361 22.802 14.821 22.4849Z" fill="black"/>
<path fill-rule="evenodd" clip-rule="evenodd" d="M25.1067 23.2875C24.5674 21.2747 22.4986 20.0803 20.4858 20.6196C18.4731 21.1589 17.2786 23.2277 17.818 25.2405C18.3573 27.2532 20.4261 28.4477 22.4389 27.9084C23.8505 27.5301 24.8607 26.3994 25.1511 25.0608C25.2207 24.74 25.5372 24.5364 25.858 24.606C26.1787 24.6756 26.3823 24.9921 26.3127 25.3129C25.9315 27.0694 24.6047 28.5586 22.7465 29.0565C20.0997 29.7657 17.3791 28.1949 16.6698 25.5481C15.9606 22.9013 17.5314 20.1807 20.1782 19.4715C22.825 18.7622 25.5456 20.333 26.2549 22.9798C26.3398 23.2969 26.1517 23.6227 25.8346 23.7077C25.5176 23.7926 25.1917 23.6045 25.1067 23.2875Z" fill="black"/>
<path fill-rule="evenodd" clip-rule="evenodd" d="M24.9788 24.4389C25.0039 24.1117 24.7589 23.8261 24.4316 23.801L23.5727 23.7353L40.1014 14.1924L42.4879 14.4799C42.8138 14.5192 43.1098 14.2869 43.1491 13.961C43.1883 13.6351 42.956 13.3391 42.6301 13.2999L41.8171 13.2019L42.1294 13.0216L44.5159 13.3091C44.8418 13.3484 45.1378 13.116 45.177 12.7902C45.2163 12.4643 44.9839 12.1683 44.6581 12.129L43.845 12.0311L44.1573 11.8507L46.5438 12.1383C46.8697 12.1775 47.1657 11.9452 47.205 11.6193C47.2442 11.2934 47.0119 10.9974 46.686 10.9582L44.8896 10.7417L45.6003 9.07775C45.7293 8.7759 45.5891 8.42669 45.2873 8.29776C44.9854 8.16882 44.6362 8.30899 44.5073 8.61084L43.563 10.8214L43.2507 11.0017L43.5724 10.2486C43.7013 9.94674 43.5612 9.59753 43.2593 9.4686C42.9575 9.33966 42.6083 9.47983 42.4793 9.78168L41.5351 11.9922L41.2227 12.1725L41.5444 11.4194C41.6734 11.1176 41.5332 10.7684 41.2314 10.6394C40.9295 10.5105 40.5803 10.6507 40.4514 10.9525L39.5071 13.163L22.966 22.7131L23.3547 21.8939C23.4954 21.5973 23.3691 21.2429 23.0725 21.1022C22.776 20.9615 22.4215 21.0878 22.2808 21.3843L21.0747 23.9265C20.9908 24.1034 20.9993 24.3102 21.0975 24.4795C21.1958 24.6488 21.3711 24.7589 21.5663 24.7739L24.3409 24.9862C24.6682 25.0112 24.9538 24.7662 24.9788 24.4389Z" fill="black"/>
</svg>

<svg width="48" height="48" fill="none" xmlns="http://www.w3.org/2000/svg"><path d="M25.82 24.264a4.358 4.358 0 11-8.716 0 4.358 4.358 0 018.716 0z" fill="#C43B55"/><path d="M35.328 24.264c0 7.659-6.208 13.867-13.867 13.867-7.659 0-13.867-6.208-13.867-13.867 0-7.659 6.208-13.867 13.867-13.867 7.659 0 13.867 6.208 13.867 13.867zm-24.545 0c0 5.897 4.78 10.678 10.678 10.678 5.897 0 10.678-4.78 10.678-10.678 0-5.897-4.78-10.678-10.678-10.678-5.897 0-10.678 4.78-10.678 10.678z" fill="#C43B55"/><path fill-rule="evenodd" clip-rule="evenodd" d="M21.462 10.991c-7.33 0-13.273 5.942-13.273 13.273 0 7.33 5.942 13.273 13.273 13.273 7.33 0 13.272-5.943 13.272-13.273 0-5.143-2.925-9.604-7.205-11.808a.594.594 0 01.544-1.057c4.66 2.4 7.85 7.26 7.85 12.865 0 7.987-6.475 14.461-14.462 14.461C13.476 38.725 7 32.251 7 24.264S13.475 9.802 21.462 9.802a.594.594 0 110 1.19z" fill="#000"/><path fill-rule="evenodd" clip-rule="evenodd" d="M21.462 34.367c-5.58 0-10.104-4.523-10.104-10.103s4.524-10.103 10.104-10.103c5.58 0 10.103 4.523 10.103 10.103 0 3.915-2.227 7.31-5.485 8.988a.594.594 0 00.544 1.057 11.29 11.29 0 006.13-10.045c0-6.236-5.056-11.292-11.292-11.292S10.17 18.028 10.17 24.264s5.056 11.292 11.292 11.292a.594.594 0 100-1.189z" fill="#000"/><path fill-rule="evenodd" clip-rule="evenodd" d="M14.821 22.485a6.874 6.874 0 11-.08 3.231.594.594 0 10-1.162.252 8.063 8.063 0 10.094-3.791.594.594 0 001.148.308z" fill="#000"/><path fill-rule="evenodd" clip-rule="evenodd" d="M25.107 23.288a3.773 3.773 0 10.044 1.773.594.594 0 111.162.252 4.961 4.961 0 01-9.643.235 4.962 4.962 0 019.585-2.568.594.594 0 01-1.148.308z" fill="#000"/><path fill-rule="evenodd" clip-rule="evenodd" d="M24.979 24.439a.594.594 0 00-.547-.638l-.86-.066 16.53-9.543 2.386.288a.594.594 0 10.142-1.18l-.813-.098.312-.18 2.387.287a.594.594 0 10.142-1.18l-.813-.098.312-.18 2.387.287a.594.594 0 00.142-1.18l-1.796-.216.71-1.664a.594.594 0 10-1.093-.467l-.944 2.21-.312.18.321-.752a.594.594 0 10-1.093-.467l-.944 2.21-.312.18.321-.753a.594.594 0 10-1.093-.466l-.944 2.21-16.541 9.55.389-.82a.594.594 0 10-1.074-.509l-1.206 2.543a.594.594 0 00.491.847l2.775.212a.594.594 0 00.638-.547z" fill="#000"/></svg>
